X:1
T:Herbstlied
T:Herbstlied
T:Felix Mendelsohn-Bartholdy
C:Felix Mendelsohn-Bartholdy
%%score [ 1 2 3 4 ]
L:1/8
Q:1/4=120
M:3/8
K:G
V:1 treble nm="Soprano" snm="S"
V:2 treble nm="Alto" snm="A"
V:3 treble-8 nm="Tenor" snm="T"
V:4 bass nm="Bass" snm="B"
V:1
!p!"^Andante" B/B/ | B>!<(!A A/A/!<)! | ^d2 d/d/ | e>B B/A/ |!p! GF B/B/ | B>A d/A/ | B2 d/d/ | %7
w: Hol- der|Lenz, du bist da-|hin! Nir- gends,|nir- gends darfst du|blei- ben! Wo ich|sah dein fro- hes|Blüh'n, braust des|
 d>^c e/d/ | d^c z |!f! (fe)d | (^c=c)B | e2 (e/^c/) |!p! ^AB z |!pp! F/>F/!<(! F/F/ F/F/!<)! | %14
w: Herb- stes ban- ges|Trei- ben,|braust _ des|Herb- * stes|ban- ges *|Trei- ben.|Wie der Wind so trau- rig|
 G3 | G/>^G/ A/A/ A/A/ | B A2 |!f! c/>c/ c/B/ ^d/e/ |!p! fB B/>B/ | B>g f/^d/ | %20
w: fuhr|durch den Strauch, als ob er|wei- ne,|durch den Strauch, als ob er|wei- ne; Ster- be-|seuf- zer der Na-|
"^sempre"!p! B2 B/>B/ | B>g f/^d/ |!f! Be G/>A/ | B3- | B/A/ B/c/ d/e/ |!p! (G2- G/F/) | %26
w: tur schau- ern|durch die wel- ken|Hai- ne, durch die|wel-|* ken, durch die wel- ken|Hai- * *|
!f! E2 B/B/ | B>A A/A/ | ^d2 d/d/ |!p! e>"^rit."B B/A/ | .G.F !fermata!z | %31
w: ne. Wie- der|ist, wie bald, wie|bald! mir ein|Jahr da- hin ge-|schwun- den.|
!pp! F/>"^a tempo"F/!<(! F/F/ F/F/!<)! | G3 | G/^G/ A/>A/ A/A/ | B A2 |!f! c/>c/ c/B/ ^d/e/ | %36
w: Fra- gend rauscht es durch den|Wald:|hat dein Herz sein Glück ge-|fun- den?|Fra- gend rauscht es durch den|
!pp! f2 B/>B/ | c>B A/F/ | E2 ^D | !fermata!z3 ||[K:E][M:2/2]"^Allegro"!mf! z4 G3 G | G2 E2 B3 B | %42
w: Wald: hat dein|Herz sein Glück ge-|fun- den?||Wal- des-|rau- schen, wun- der-|
 B4 c2 B2 | A2 c2 !>!f3 e |!f! e2 d2 g3 e | e3 c c3 B |!p! B4 B2 G2 | F3 F F2 A2 |!f! A2 G2 g3 e | %49
w: bar hast du|mir das Herz ge-|trof- fen! Treu- lich|bringt ein je- des|Jahr neu- es|Laub wie neu- es|Hof- fen, treu- lich|
 e3 c c3 B |!p! B4 ^A2 B2 | e3 e d2 c2 | c2 B2 ^A2 B2 | e3 e d2 c2 | c2 B2 z4 | z4 =d3 d | =d8 | %57
w: bringt ein je- des|Jahr neu- es|Laub wie neu- es|Hof- fen, neu- es|Laub wie neu- es|Hof- fen.|Wal- des-|rau-|
!f! =d4 d3 d | =d4 c2 B2 | A2 c2 !>!f3 e |!f! e2 d2 g3 e | e3 c c3 B |!p! B4 B2 G2 | F3 F F2 A2 | %64
w: schen, wun- der-|bar hast du|mir das Herz ge-|trof- fen! Treu- lich|bringt ein je- des|Jahr neu- es|Laub wie neu- es|
 A2 G2 B2 G2 | F3 F F2 e2 |!f! e2 d4 B2 | (g8- | g2 f2 e2) c2 | (B6 A2) |!f! G4 c2 e2 | (g6 f2) | %72
w: Hof- fen, neu- es|Laub wie neu- es|Hof- fen, wie|neu-|* * * es|Hof- *|fen, neu- es|Laub _|
 (e2 c2) B2 A2 | (G6 F2) |!p! E4 F2 G2 | A2 c2 B2 A2 | G4 F2 G2 | A2 c2 B2 A2 |!f! (A2 G2) e3 B | %79
w: wie * neu- es|Hof- *|fen. Treu- lich|bringt ein je- des|Jahr, treu- lich|bringt ein je- des|Jahr * neu- es|
 B8 | z4 e3 B | B8- |!p! B4 G4 | G4 (B2 A2) | (G8- | G4 F4) | !fermata!E8 |] %87
w: Laub,|neu- es|Laub|* wie|neu- es *|Hof-||fen.|
V:2
!p! G/G/ | G>!<(!F F/F/!<)! | AGF | E>E G/F/ |!p! E^D G/G/ | G>G F/F/ | GGF | E>E E/F/ | %8
w: Hol- der|Lenz, du bist da-|hin! Nir- gends,|nir- gends darfst du|blei- ben! Wo ich|sah dein fro- hes|Blüh'n, braust des|Herb- stes ban- ges|
!f! GG F/>F/ | (F3 | GA)G | EE z |!p! ED z | z3 |!pp! D/>D/!<(! D/D/ =F/F/!<)! | (E G2) | %16
w: Trei- ben, braust des|Herb-|* * stes|ban- ges|Trei- ben.||Wie der Wind so trau- rig|fuhr _|
 D/>D/ D/D/ F/F/ |!f! (F A2) |!p! A2 A/>A/ | GG A/>A/ |"^sempre"!p! GGF | E/>G/ GA | AG z | %23
w: durch den Strauch, als ob er|wei- *|ne; Ster- be-|seuf- zer der Na-|tur schau- ern|durch die wel- ken|Hai- ne,|
!f! F2 =F | EE z |!p! z (E^D) |!f! E2 G/G/ | G>F F/F/ | AGF |!p! E>"^rit."E G/F/ | %30
w: durch die|wel- ken|Hai- *|ne. Wie- der|ist, wie bald, wie|bald! mir ein|Jahr da- hin ge-|
 .E.^D !fermata!z | z3 |!pp! D/>D/!<(! D/D/ =F/F/!<)! | (E G2) | G/>G/ F/F/ F/F/ |!f! AA A/A/ | %36
w: schwun- den.||Fra- gend rauscht es durch den|Wald: _|hat dein Herz sein Glück ge-|fun- den? durch den|
!pp! A2 B/>B/ | c>B A/F/ | E2 ^D | !fermata!z3 ||[K:E][M:2/2]!mf! z4 E3 E | E2 E2 E3 E | E4 G2 G2 | %43
w: Wald: hat dein|Herz sein Glück ge-|fun- den?||Wal- des-|rau- schen, wun- der-|bar hast du|
 A2 A2 !>!A3 A |!f! A2 A2 G3 G | G3 A A3 E |!p! E4 E2 E2 | E3 E E2 D2 |!f! D2 E2 G3 G | G3 c c3 E | %50
w: mir das Herz ge-|trof- fen! Treu- lich|bringt ein je- des|Jahr neu- es|Laub wie neu- es|Hof- fen, treu- lich|bringt ein je- des|
!p! E4 E2 E2 | G4 F2 E2 | D4 E2 E2 | G3 G F2 E2 | E2 D2 z4 | z4 ^E3 E | ^E8 |!f! ^E4 F3 F | %58
w: Jahr neu- es|Laub, neu- es|Laub, neu- es|Laub wie neu- es|Hof- fen.|Wal- des-|rau-|schen, wun- der-|
 F4 G2 G2 | A2 A2 !>!A3 A |!f! A2 A2 G3 G | G3 A A3 E |!p! E4 E2 E2 | E3 E E2 D2 | D2 E2 E4 | %65
w: bar hast du|mir das Herz ge-|trof- fen! Treu- lich|bringt ein je- des|Jahr neu- es|Laub wie neu- es|Hof- fen, wie|
 E3 E E2 F2 |!f! F4 F4 | z4 (B2 ^B2) | c6 A2 | (G6 F2) | E4 z4 |!f! z4 ^B4 | (c2 A2 G2) F2 | %73
w: neu- es, neu- es|Hof- fen,|wie _|neu- es|Hof- *|fen,|wie|neu- * * es|
 (E4 D4) |!p! E4 D2 E2 | F2 A2 G2 F2 | E4 D2 E2 | F2 A2 G2 F2 | (F2 E2) z4 |!f! z4 A3 G | G8 | %81
w: Hof- *|fen. Treu- lich|bringt ein je- des|Jahr, treu- lich|bringt ein je- des|Jahr _|neu- es|Laub,|
 z4 F3 E |!p! E4 D4 | C4 C4 | (E8 | D8) | !fermata!E8 |] %87
w: neu- es|Laub wie|neu- es|Hof-||fen.|
V:3
!p! B/B/ | c>!<(!c c/c/!<)! | cBA | (G e/)=d/ c/c/ |!p! BB B/B/ | c>c c/c/ | B2 B/B/ | B>B B/B/ | %8
w: Hol- der|Lenz, du bist da-|hin! Nir- gends,|nir- * gends darfst du|blei- ben! Wo ich|sah dein fro- hes|Blüh'n, braust des|Herb- stes ban- ges|
 B^A z |!f! (B^A)f | e d2 | BB z |!p! ^cB z | z3 |!pp! B/>B/!<(! B/B/ B/B/!<)! | (c e2) | %16
w: Trei- ben,|braust _ des|Herb- stes|ban- ges|Trei- ben.||Wie der Wind so trau- rig|fuhr *|
 G/>G/ F/F/ A/A/ |!f! (Af>e) |!p! ^d2 d/>d/ | eB c/>c/ |"^sempre"!p! BBA | G/>B/ Bc | BB z | %23
w: durch den Strauch, als ob er|wei- * *|ne; Ster- be-|seuf- zer der Na-|tur schau- ern|durch die wel- ken|Hai- ne,|
!f! ^d2 =d | cc z |!p! z (BA) |!f! G2 B/B/ | c>c c/c/ | cBA |!p! G>"^rit."B c/c/ | %30
w: durch die|wel- ken|Hai- *|ne. Wie- der|ist, wie bald, wie|bald! mir ein|Jahr da- hin ge-|
 .B.B !fermata!z | z3 |!pp! B/>B/!<(! B/B/ B/B/!<)! | (c2 ^c) | d/>d/ d/d/ d/d/ |!f! ff f/e/ | %36
w: schwun- den.||Fra- gend rauscht es durch den|Wald: *|hat dein Herz sein Glück ge-|fun- den? durch den|
!pp! ^d2 B/>B/ | c>B A/F/ | E2 ^D | !fermata!z3 ||[K:E][M:2/2]!mf! z4 B3 B | B2 G2 =d3 d | %42
w: Wald: hat dein|Herz sein Glück ge-|fun- den?||Wal- des-|rau- schen, wun- der-|
 =d4 d2 d2 | c2 c2 !>!=c3 c |!f! B2 B2 e3 e | e3 e e3 B |!p! B4 B2 B2 | c3 c F2 F2 | %48
w: bar hast du|mir das Herz ge-|trof- fen! Treu- lich|bringt ein je- des|Jahr neu- es|Laub wie neu- es|
!f! F2 E2 e3 e | e3 e e3 c |!p! c4 c2 B2 | ^A4 A2 A2 | B4 c2 B2 | ^A3 A A2 A2 | ^A2 B2 B3 B | B8 | %56
w: Hof- fen, treu- lich|bringt ein je- des|Jahr neu- es|Laub, neu- es|Laub, neu- es|Laub wie neu- es|Hof- fen. Wal- des-|rau-|
!f! B4 B3 B | B8- | B4 G2 G2 | c2 c2 !>!=c3 c |!f! B2 B2 B3 e | e3 e e3 B |!p! B4 B2 B2 | %63
w: schen, wun- der-|bar|* hast du|mir das Herz ge-|trof- fen! Treu- lich|bringt ein je- des|Jahr neu- es|
 c3 c F2 F2 | F2 E2 B4 | c3 c c2 c2 |!f! B4 d4 | z4 (e2 d2) | (c4 e2) e2 | (e4 d4) | e4 z4 | %71
w: Laub wie neu- es|Hof- fen, wie|neu- es, neu- es|Hof- fen,|wie _|neu- * es|Hof- *|fen,|
!f! z4 (e2 d2) | (c2 d2 e2) c2 | (B6 A2) |!p! G4 B3 B | B8 | z4 B3 B | B8 | B4 z4 |!f! z4 f3 e | %80
w: wie *|neu- * * es|Hof- *|fen, neu- es|Laub,|neu- es|Hof-|fen,|neu- es|
 e8 | z4 A3 G |!p! G4 F4 | E4 F4 | (B8 | A8) | !fermata!G8 |] %87
w: Laub,|neu- es|Laub wie|neu- es|Hof-||fen.|
V:4
!p! E,/E,/ | E,>!<(!E, E,/E,/!<)! | E,2 E,/E,/ | E,G, A,/A,/ |!p! B,B, E,/E,/ | E,>E, D,/D,/ | %6
w: Hol- der|Lenz, du bist da-|hin! Nir- gends,|nir- gends darfst du|blei- ben! Wo ich|sah dein fro- hes|
 G,2 G,/G,/ | G,>G, G,/F,/ | E,E, z |!f! (D,^C,)B,, | (E,F,)G, | G,G, z |!p! F,B,, z | z3 | z3 | %15
w: Blüh'n, braust des|Herb- stes ban- ges|Trei- ben,|braust _ des|Herb- * stes|ban- ges|Trei- ben.|||
!p! C,/>C,/ C,/C,/ ^C,/C,/ |!f! D,2 D,/D,/ | ^D,>D, C/C/ |!p! B,B, B,,/>B,,/ | E,E, E,/>E,/ | %20
w: Wie der Wind so trau- rig|fuhr durch den|Strauch, als ob er|wei- ne; Ster- be-|seuf- zer der Na-|
"^sempre"!p! E,B,,^D, | E,/>E,/ E,E, | E,E, z |!f! (B,A,)^G, | A,A, z |!p! z B,,2 |!f! E,2 E,/E,/ | %27
w: tur schau- ern|durch die wel- ken|Hai- ne,|durch _ die|wel- ken|Hai-|ne. Wie- der|
 E,>E, E,/E,/ | E,2 E,/E,/ |!p! E,G,,"^rit." A,,/A,,/ | .B,,.B,, !fermata!z | z3 | z3 | z3 | z3 | %35
w: ist, wie bald, wie|bald! mir ein|Jahr da- hin ge-|schwun- den.|||||
!f! ^D,/>D,/ D,/D,/ C/C/ |!pp! B,2 B,/>B,/ | C>B, A,/F,/ | E,2 ^D, | !fermata!z3 || %40
w: Fra- gend rauscht es durch den|Wald: hat dein|Herz sein Glück ge-|fun- den?||
[K:E][M:2/2]!mf! z4 E,3 E, | E,2 E,2 E,3 E, | E,4 E,2 E,2 | E,2 E,2 !>!E,3 E, |!f! E,2 E,2 E,3 C | %45
w: Wal- des-|rau- schen, wun- der-|bar hast du|mir das Herz ge-|trof- fen! Treu- lich|
 C3 A, A,3 G, |!p! G,4 G,,2 G,,2 | A,,3 A,, B,,2 B,,2 |!f! E,2 E,2 E,3 C | C3 ^A, A,3 G, | %50
w: bringt ein je- des|Jahr neu- es|Laub wie neu- es|Hof- fen, treu- lich|bringt ein je- des|
!p! G,4 F,2 F,2 | F,4 F,2 F,2 | F,4 F,2 F,2 | F,3 F, F,2 F,2 | F,2 B,,2 z4 | z4 G,3 G, | G,8 | %57
w: Jahr neu- es|Laub, neu- es|Laub, neu- es|Laub wie neu- es|Hof- fen.|Wal- des-|rau-|
!f! G,4 F,3 F, | F,4 ^E,2 E,2 | F,2 F,2 !>!F,3 F, |!f! B,,2 B,,2 E,3 C | C3 A, A,3 G, | %62
w: schen, wun- der-|bar hast du|mir das Herz ge-|trof- fen! Treu- lich|bringt ein je- des|
!p! G,4 G,,2 G,,2 | A,,3 A,, B,,2 B,,2 | C,2 C,2 G,4 | A,3 A, A,2 A,2 |!f! A,4 A,4 | z4 G,4 | %68
w: Jahr neu- es|Laub wie neu- es|Hof- fen, wie|neu- es, neu- es|Hof- fen,|wie|
 A,6 A,2 | (B,4 ^B,4) | C4 z4 |!f! z4 G,4 | (C2 F,2 G,2) A,2 | (B,4 B,,4) | E,4 z4 | %75
w: neu- es|Hof- *|fen,|wie|neu- * * es|Hof- *|fen,|
!p! z4 B,,3 B,, | B,,8 | z2 B,,2 C,2 D,2 | D,2 E,2 z4 |!f! z4 D,3 E, | E,8 | z4 D,3 E, | %82
w: neu- es|Laub,|wie neu- es|Hof- fen,|neu- es|Laub,|neu- es|
!p! E,4 ^B,,4 | C,4 A,,4 | B,,8- | B,,8 | !fermata![E,,E,]8 |] %87
w: Laub wie|neu- es|Hof-||fen.|

